X:195
T:Gan Ainm
R:Reel
M:4/4
S:Sharon Shannon, Clare (accordian)
D:Session tape, Doolin 1987
Z:Bernie Stocks
K:D
ADFD E3F | DEFD E3F | A2AB ADFA | defd efdB | AFdF E3F |
DEFD E3F | (3.A.A.A AB ADFA |1 defe d4 :|2 defe d3e || fd(3.d.d.d BdAF |
Af(3.f.f.f fgae |1 fd(3.d.d.d edBd | ABdf e2de :|2 bf(3.f.f.f afdB | ABdf efdB ||
